2bf
albertroad.htmlalbertroad.htmlalbertroad.htmlalbertroad.htmlalbertroad.htmlalbertroad.htmlalbertroad.htmlalbertroad.htmlalbertroad.html

T:Reavy's
M:C|
L:1/8
R:reel
D:Kevin and Séamus Glackin: Northern Lights
Z:Devin McCabe
K:G
B|:AGEG DG,B,A|~B2GA BedB|AGED B,DA,D|B,A,A,G, B,EED|
!~E2DE GEDB,|D/2E/2D CE DG,B,D|EDEG DEGA|1BdAB G2 B/2c/2B:|2BdAB GABc|
!:d~G3 EGDC|B,G,B,D GBdg|e~c3 AcGE|FDFe fed^c|
!d~G3 EGDC|B,G,B,D GBdg|e~c3 afge|1dBAF GABc:|2BdAB G2 B/2c/2B||



albertroad.htmlalbertroad.htmlalbertroad.htmlalbertroad.htmlalbertroad.htmlalbertroad.html
0

